Resources/app/storefront/src/assets/icon-pack/cinema/ic-instagram.svg

<?xml version="1.0" encoding="UTF-8"?>
<svg width="18px" height="18px" viewBox="0 0 18 18" version="1.1" xmlns="http://www.w3.org/2000/svg" xmlns:xlink="http://www.w3.org/1999/xlink">
    <title>9ACA9F7E-2EE2-4442-8101-123104DC7EF1@1x</title>
    <defs>
        <path d="M9.98649758,0.000819687684 C10.9840145,0.00283033565 11.4862167,0.00887434526 11.9288723,0.0225548104 L12.1162066,0.0288959097 C12.3024361,0.0357255563 12.4891626,0.044052359 12.7106885,0.0541599433 C13.6686336,0.0978522986 14.3228757,0.250007443 14.895342,0.472506207 C15.4871715,0.702471613 15.9890799,1.01021155 16.489452,1.51054797 C16.9897884,2.01092011 17.2975284,2.51282845 17.5275295,3.10465802 C17.7499926,3.67712433 17.9021477,4.33136644 17.9458401,5.28931151 C17.9559476,5.51083744 17.9642744,5.69756393 17.9711041,5.88379386 L17.9774452,6.07112874 C17.9911257,6.51378614 17.9971697,7.01599339 17.9991803,8.01352406 L17.9999527,8.72731497 L17.9999527,8.72731497 L18,9.00001786 C18,9.09402692 17.9999847,9.18487362 17.9999527,9.27271679 L17.9991803,9.98649758 C17.9971697,10.9840145 17.9911257,11.4862167 17.9774452,11.9288723 L17.9711041,12.1162066 C17.9642744,12.3024361 17.9559476,12.4891626 17.9458401,12.7106885 C17.9021477,13.6686336 17.7499926,14.3228757 17.5275295,14.895342 C17.2975284,15.4871715 16.9897884,15.9890799 16.489452,16.489452 C15.9890799,16.9897884 15.4871715,17.2975284 14.895342,17.5275295 C14.3228757,17.7499926 13.6686336,17.9021477 12.7106885,17.9458401 C12.4891626,17.9559476 12.3024361,17.9642744 12.1162066,17.9711041 L11.9288723,17.9774452 C11.4862167,17.9911257 10.9840145,17.9971697 9.98649758,17.9991803 L9.27271679,17.9999527 L9.27271679,17.9999527 L9.00001786,18 C8.90600744,18 8.81515941,17.9999847 8.72731497,17.9999527 L8.01352406,17.9991803 C7.01599339,17.9971697 6.51378614,17.9911257 6.07112874,17.9774452 L5.88379386,17.9711041 C5.69756393,17.9642744 5.51083744,17.9559476 5.28931151,17.9458401 C4.33136644,17.9021477 3.67712433,17.7499926 3.10465802,17.5275295 C2.51282845,17.2975284 2.01092011,16.9897884 1.51054797,16.489452 C1.01021155,15.9890799 0.702471613,15.4871715 0.472506207,14.895342 C0.250007443,14.3228757 0.0978522986,13.6686336 0.0541599433,12.7106885 C0.044052359,12.4891626 0.0357255563,12.3024361 0.0288959097,12.1162066 L0.0225548104,11.9288723 C0.00887434526,11.4862167 0.00283033565,10.9840145 0.000819687684,9.98649758 L0.000819687684,8.01352406 C0.00283033565,7.01599339 0.00887434526,6.51378614 0.0225548104,6.07112874 L0.0288959097,5.88379386 C0.0357255563,5.69756393 0.044052359,5.51083744 0.0541599433,5.28931151 C0.0978522986,4.33136644 0.250007443,3.67712433 0.472506207,3.10465802 C0.702471613,2.51282845 1.01021155,2.01092011 1.51054797,1.51054797 C2.01092011,1.01021155 2.51282845,0.702471613 3.10465802,0.472506207 C3.67712433,0.250007443 4.33136644,0.0978522986 5.28931151,0.0541599433 C5.51083744,0.044052359 5.69756393,0.0357255563 5.88379386,0.0288959097 L6.07112874,0.0225548104 C6.51378614,0.00887434526 7.01599339,0.00283033565 8.01352406,0.000819687684 Z M9.5375081,1.62180778 L8.46251972,1.62180778 C8.37924082,1.62187292 8.29899524,1.62195595 8.22160489,1.62205845 L7.79010073,1.62291999 C6.456464,1.62665603 6.12243863,1.63946007 5.36322768,1.67409957 C4.48573657,1.71411219 4.00919338,1.86072987 3.69205761,1.98398304 C3.2719608,2.14724883 2.97215193,2.34227465 2.65723115,2.65723115 C2.34227465,2.97215193 2.14724883,3.2719608 1.98398304,3.69205761 C1.86072987,4.00919338 1.71411219,4.48573657 1.67409957,5.36322768 C1.63946007,6.12243863 1.62665603,6.456464 1.62291999,7.79010073 L1.62205845,8.22160489 C1.62195595,8.29899524 1.62187292,8.37924082 1.62180778,8.46251972 L1.62180778,9.5375081 C1.62187292,9.62078579 1.62195595,9.70103021 1.62205845,9.77841946 L1.62291999,10.2099176 C1.62665603,11.543536 1.63946007,11.8775614 1.67409957,12.6367723 C1.71411219,13.5142634 1.86072987,13.9908066 1.98398304,14.3079424 C2.14724883,14.7280392 2.34231037,15.0278481 2.65723115,15.3427688 C2.97215193,15.6577254 3.2719608,15.8527512 3.69205761,16.016017 C4.00919338,16.1392701 4.48573657,16.2858878 5.36322768,16.3259004 C6.12235289,16.3605399 6.45631539,16.373344 7.79002185,16.37708 L8.22155102,16.3779415 C8.29894623,16.3780441 8.37919704,16.3781271 8.46248154,16.3781922 L9.53754691,16.3781922 C9.6208304,16.3781271 9.7010803,16.3780441 9.77847469,16.3779415 L10.2099999,16.37708 C11.543696,16.373344 11.8776757,16.3605399 12.6367723,16.3259004 C13.5142634,16.2858878 13.9908066,16.1392701 14.3079424,16.016017 C14.7280392,15.8527512 15.0278481,15.6577254 15.3427688,15.3427688 C15.6577254,15.0278481 15.8527512,14.7280392 16.016017,14.3079424 C16.1392701,13.9908066 16.2858878,13.5142634 16.3259004,12.6367723 C16.3605399,11.8775614 16.373344,11.543536 16.37708,10.2099176 L16.3779415,9.77841946 C16.3780441,9.70103021 16.3781271,9.62078579 16.3781922,9.5375081 L16.3781922,8.46251972 C16.3781271,8.37924082 16.3780441,8.29899524 16.3779415,8.22160489 L16.37708,7.79010073 C16.373344,6.456464 16.3605399,6.12243863 16.3259004,5.36322768 C16.2858878,4.48573657 16.1392701,4.00919338 16.016017,3.69205761 C15.8527512,3.2719608 15.6577254,2.97215193 15.3427688,2.65723115 C15.0278481,2.34227465 14.7280392,2.14724883 14.3079424,1.98398304 C13.9908066,1.86072987 13.5142634,1.71411219 12.6367723,1.67409957 C11.8775614,1.63946007 11.543536,1.62665603 10.2099176,1.62291999 L9.77841946,1.62205845 C9.70103021,1.62195595 9.62078579,1.62187292 9.5375081,1.62180778 Z M9.00001739,4.5 C11.4852974,4.5 13.5,6.51470264 13.5,9.00001739 C13.5,11.4852974 11.4852974,13.5 9.00001739,13.5 C6.51470264,13.5 4.5,11.4852974 4.5,9.00001739 C4.5,6.51470264 6.51470264,4.5 9.00001739,4.5 Z M9.00001739,6.07894554 C7.38673863,6.07894554 6.07894554,7.38673863 6.07894554,9.00001739 C6.07894554,10.6132614 7.38673863,11.9210545 9.00001739,11.9210545 C10.6132614,11.9210545 11.9210545,10.6132614 11.9210545,9.00001739 C11.9210545,7.38673863 10.6132614,6.07894554 9.00001739,6.07894554 Z M13.8214126,3.21428571 C14.3539779,3.21428571 14.7857143,3.64602211 14.7857143,4.17858738 C14.7857143,4.71115264 14.3539779,5.14285714 13.8214126,5.14285714 C13.2888793,5.14285714 12.8571429,4.71115264 12.8571429,4.17858738 C12.8571429,3.64602211 13.2888793,3.21428571 13.8214126,3.21428571 Z" id="path-1"></path>
    </defs>
    <g id="Lizenzen-&amp;-Assets-✅" stroke="none" stroke-width="1" fill="none" fill-rule="evenodd">
        <g id="Icons" transform="translate(-243.000000, -934.000000)">
            <g id="Fills/Grey-900" transform="translate(243.000000, 934.000000)">
                <mask id="mask-2" fill="white">
                    <use xlink:href="#path-1"></use>
                </mask>
                <use id="Mask" fill="#071C31" xlink:href="#path-1"></use>
                <g id="Group" mask="url(#mask-2)" fill="#071C31">
                    <g id="Rectangle">
                        <rect x="0" y="0" width="24" height="24"></rect>
                    </g>
                </g>
            </g>
        </g>
    </g>
</svg>

<?xml version="1.0" encoding="UTF-8"?><svg width="18" height="18" xmlns="http://www.w3.org/2000/svg" xmlns:xlink="http://www.w3.org/1999/xlink"><defs><path d="M9.99 0c1 0 1.5 0 1.94.02h.19c.18.02.37.02.6.03.95.05 1.6.2 2.18.42.59.23 1.09.54 1.59 1.04s.8 1 1.04 1.6c.22.57.37 1.22.42 2.18l.02.6v.18c.02.44.03.95.03 1.94V10c0 1 0 1.5-.02 1.94v.19c-.02.18-.02.37-.03.6a6.6 6.6 0 0 1-.42 2.18c-.23.59-.54 1.09-1.04 1.59s-1 .8-1.6 1.04a6.6 6.6 0 0 1-2.18.42l-.6.02h-.18c-.44.02-.95.03-1.94.03H8c-1 0-1.5 0-1.94-.02h-.19c-.18-.02-.37-.02-.6-.03a6.6 6.6 0 0 1-2.18-.42c-.59-.23-1.09-.54-1.59-1.04s-.8-1-1.04-1.6a6.6 6.6 0 0 1-.42-2.18l-.02-.6v-.18C0 11.49 0 10.98 0 9.99V8c0-1 0-1.5.02-1.94v-.19c.02-.18.02-.37.03-.6.05-.95.2-1.6.42-2.18.23-.59.54-1.09 1.04-1.59s1-.8 1.6-1.04A6.6 6.6 0 0 1 5.28.05l.6-.02h.18C6.51 0 7.02 0 8.01 0Zm-.45 1.62H7.79c-1.33 0-1.67.02-2.43.05-.87.04-1.35.2-1.67.31-.42.17-.72.36-1.03.68-.32.31-.51.61-.68 1.03-.12.32-.27.8-.3 1.67-.04.76-.05 1.1-.06 2.43v2.42c0 1.33.02 1.67.05 2.43.04.87.2 1.35.31 1.67.17.42.36.72.68 1.03.31.32.61.51 1.03.68.32.12.8.27 1.67.3.76.04 1.1.05 2.43.06h2.42c1.33 0 1.67-.02 2.43-.05a4.98 4.98 0 0 0 1.67-.31c.42-.17.72-.36 1.03-.68.32-.31.51-.61.68-1.03.12-.32.27-.8.3-1.67.04-.76.05-1.1.06-2.43V7.79c0-1.33-.02-1.67-.05-2.43a4.98 4.98 0 0 0-.31-1.67 2.79 2.79 0 0 0-.68-1.03 2.79 2.79 0 0 0-1.03-.68c-.32-.12-.8-.27-1.67-.3-.76-.04-1.1-.05-2.43-.06H9.54ZM9 4.5a4.5 4.5 0 1 1 0 9 4.5 4.5 0 0 1 0-9Zm0 1.58a2.92 2.92 0 1 0 0 5.84 2.92 2.92 0 0 0 0-5.84Zm4.82-2.87a.96.96 0 1 1 0 1.93.96.96 0 0 1 0-1.93Z" id="a"/></defs><g fill="none" fill-rule="evenodd"><mask id="b" fill="#fff"><use xlink:href="#a"/></mask><use fill="#071C31" xlink:href="#a"/><g mask="url(#b)" fill="#071C31"><path d="M0 0h24v24H0z"/></g></g></svg>
